Numix-GalliumOS/22/mimetypes/application-x-blender.svg

<?xml version="1.0" encoding="UTF-8" standalone="no"?>
<svg
   xmlns:dc="http://purl.org/dc/elements/1.1/"
   xmlns:cc="http://creativecommons.org/ns#"
   xmlns:rdf="http://www.w3.org/1999/02/22-rdf-syntax-ns#"
   xmlns:svg="http://www.w3.org/2000/svg"
   xmlns="http://www.w3.org/2000/svg"
   xmlns:sodipodi="http://sodipodi.sourceforge.net/DTD/sodipodi-0.dtd"
   xmlns:inkscape="http://www.inkscape.org/namespaces/inkscape"
   width="22"
   height="22"
   viewBox="0 0 22 22"
   id="svg2"
   version="1.1"
   inkscape:version="0.48.5 r10040"
   sodipodi:docname="application-x-blender.svg">
  <metadata
     id="metadata20">
    <rdf:RDF>
      <cc:Work
         rdf:about="">
        <dc:format>image/svg+xml</dc:format>
        <dc:type
           rdf:resource="http://purl.org/dc/dcmitype/StillImage" />
      </cc:Work>
    </rdf:RDF>
  </metadata>
  <defs
     id="defs18" />
  <sodipodi:namedview
     pagecolor="#ffffff"
     bordercolor="#666666"
     borderopacity="1"
     objecttolerance="10"
     gridtolerance="10"
     guidetolerance="10"
     inkscape:pageopacity="0"
     inkscape:pageshadow="2"
     inkscape:window-width="1280"
     inkscape:window-height="970"
     id="namedview16"
     showgrid="true"
     inkscape:zoom="11.313709"
     inkscape:cx="30.582749"
     inkscape:cy="18.143842"
     inkscape:window-x="0"
     inkscape:window-y="0"
     inkscape:window-maximized="1"
     inkscape:current-layer="svg2">
    <inkscape:grid
       type="xygrid"
       id="grid3008"
       empspacing="5"
       visible="true"
       enabled="true"
       snapvisiblegridlinesonly="true" />
  </sodipodi:namedview>
  <path
     style="fill:#ce5b00;fill-opacity:1"
     d="M 4,0 C 3.527343,0 3,0.527344 3,1 l 0,20 c 0,0.445312 0.554687,1 1,1 l 14,0 c 0.445313,0 0.992367,-0.554753 1,-1 L 19,6 13,0 z"
     id="path4"
     inkscape:connector-curvature="0"
     sodipodi:nodetypes="ssssssccs" />
  <path
     style="fill:#000000;fill-opacity:0.19599998"
     d="m 14,6 5,5 0,-5 z"
     id="path6"
     inkscape:connector-curvature="0"
     sodipodi:nodetypes="cccc" />
  <path
     style="fill:#ffffff;fill-opacity:0.39200003"
     d="m 13,0 6,6 -5,0 C 13.554688,6 13,5.445312 13,5 z"
     id="path8"
     inkscape:connector-curvature="0"
     sodipodi:nodetypes="ccssc" />
  <g
     style="fill:#ffffff"
     id="g10"
     transform="matrix(1.7714822,0,0,1.8803743,-2.8329484,-3.3158065)">
    <path
       style="fill-rule:evenodd"
       d="m 7.839844,5.335938 c -0.109375,0 -0.21875,0.039062 -0.3125,0.109374 C 7.433594,5.515625 7.375,5.613281 7.367188,5.722656 7.359375,5.835938 7.402344,5.949219 7.488281,6.027344 l 0,0.00781 C 7.6875,6.207031 7.898438,6.3699701 8.097656,6.5496571 l -2.2712319,0 C 5.6662671,6.5496571 5.527344,6.605469 5.421875,6.6875 5.316406,6.769531 5.25,6.890625 5.230469,7.027344 5.183594,7.296875 5.3728193,7.6169558 5.6852949,7.6132751 l 0.9943931,0 -2.070313,1.6757869 c 0,0 -0.00391,-0.00391 -0.00781,0 -0.128906,0.105469 -0.21875,0.253907 -0.25,0.40625 -0.035156,0.152344 -0.019531,0.308594 0.070313,0.4375 0.183594,0.257813 0.550781,0.25 0.808594,0.02344 L 6.316406,9.175781 c 0.00391,0.117188 0.03125,0.292969 0.074219,0.449219 0.089844,0.3125 0.242187,0.601562 0.449219,0.859375 0.21875,0.257813 0.480468,0.46875 0.785156,0.617187 0.320312,0.15625 0.664062,0.234376 1.023438,0.234376 0.359374,0 0.703124,-0.08203 1.023437,-0.242188 0.304687,-0.148438 0.574219,-0.355469 0.789063,-0.617188 C 10.671875,10.21875 10.816406,9.929688 10.90625,9.613281 10.94922,9.457031 10.98438,9.292969 10.99609,9.128906 11.007812,8.972656 11,8.8125 10.976562,8.652344 10.9375,8.34375 10.847656,8.050781 10.695312,7.785156 10.578125,7.578125 10.421875,7.398438 10.253906,7.234375 l 0.0078,-0.00781 L 10.171875,7.15625 8.15625,5.453125 8.14844,5.445315 l -0.00781,0 C 8.050781,5.375 7.949219,5.335938 7.839844,5.335938 z M 8.625,7.125 c 1.039062,0 1.886719,0.832031 1.886719,1.863281 0,1.027344 -0.847657,1.859375 -1.886719,1.859375 -1.042969,0 -1.886719,-0.832031 -1.886719,-1.859375 C 6.738281,7.957031 7.582031,7.125 8.625,7.125 z"
       id="path12"
       inkscape:connector-curvature="0"
       sodipodi:nodetypes="ssccccsscsccccccccccsccccccccccccssssss" />
    <path
       d="m 9.167969,9.003906 c 0,0.304688 -0.253907,0.554688 -0.566407,0.554688 -0.3125,0 -0.5625,-0.25 -0.5625,-0.554688 0,-0.308594 0.25,-0.558594 0.5625,-0.558594 0.3125,0 0.566407,0.25 0.566407,0.558594 z"
       id="path14"
       inkscape:connector-curvature="0" />
  </g>
</svg>

<svg xmlns="http://www.w3.org/2000/svg" viewBox="0 0 22 22">
 <path d="m 4 0 c -0.473 0 -1 0.527 -1 1 l 0 20 c 0 0.445 0.555 1 1 1 l 14 0 c 0.445 0 0.992 -0.555 1 -1 l 0 -15 -6 -6 z" style="fill:#ce5b00;fill-opacity:1"/>
 <path d="m 14 6 5 5 0 -5 z" style="fill:#000;fill-opacity:0.196"/>
 <path d="m 13 0 6 6 -5 0 c -0.445 0 -1 -0.555 -1 -1 z" style="fill:#fff;fill-opacity:0.392"/>
 <g transform="matrix(1.7714822,0,0,1.8803743,-2.8329484,-3.3158065)" style="fill:#fff">
  <path d="m 7.84 5.336 c -0.109 0 -0.219 0.039 -0.313 0.109 c -0.094 0.07 -0.152 0.168 -0.16 0.277 -0.008 0.113 0.035 0.227 0.121 0.305 l 0 0.008 c 0.199 0.172 0.41 0.335 0.609 0.515 l -2.271 0 c -0.16 0 -0.299 0.056 -0.405 0.138 -0.105 0.082 -0.172 0.203 -0.191 0.34 -0.047 0.27 0.142 0.59 0.455 0.586 l 0.994 0 -2.07 1.676 c 0 0 -0.004 -0.004 -0.008 0 -0.129 0.105 -0.219 0.254 -0.25 0.406 -0.035 0.152 -0.02 0.309 0.07 0.438 0.184 0.258 0.551 0.25 0.809 0.023 l 1.086 -0.98 c 0.004 0.117 0.031 0.293 0.074 0.449 0.09 0.313 0.242 0.602 0.449 0.859 0.219 0.258 0.48 0.469 0.785 0.617 0.32 0.156 0.664 0.234 1.023 0.234 0.359 0 0.703 -0.082 1.023 -0.242 0.305 -0.148 0.574 -0.355 0.789 -0.617 c 0.211 -0.258 0.355 -0.547 0.445 -0.863 0.043 -0.156 0.078 -0.32 0.09 -0.484 0.012 -0.156 0.004 -0.316 -0.02 -0.477 -0.039 -0.309 -0.129 -0.602 -0.281 -0.867 -0.117 -0.207 -0.273 -0.387 -0.441 -0.551 l 0.008 -0.008 l -0.09 -0.07 -2.02 -1.703 -0.008 -0.008 l -0.008 0 c -0.09 -0.07 -0.191 -0.109 -0.301 -0.109 z m 0.785 1.789 c 1.039 0 1.887 0.832 1.887 1.863 0 1.027 -0.848 1.859 -1.887 1.859 -1.043 0 -1.887 -0.832 -1.887 -1.859 c 0 -1.031 0.844 -1.863 1.887 -1.863 z" style="fill-rule:evenodd"/>
  <path d="m 9.168 9 c 0 0.305 -0.254 0.555 -0.566 0.555 -0.313 0 -0.563 -0.25 -0.563 -0.555 0 -0.309 0.25 -0.559 0.563 -0.559 0.313 0 0.566 0.25 0.566 0.559 z"/>
 </g>
</svg>
